X:1
T: Birks of Aberfeldie
C:
R:Strathspey
Q:128
K:D
M:4/4
L:1/16
|:D3E FA3 d3e dB3|d3e dB3 cde2 def2|D3E FA3 d3e f3e|dcBA d3F E4 EE3|
D3E FA3 d3e dB3|d3e dB3 cde2 def2|D3E FA3 d3e f3e|dcBA d3F E4 EE3|
D3E F3d A3D F3d|A3D F3A BAGF E2A2|D3E FA3 d3e f3e|dcBA d3F E4 EE3|
D3E F3d A3D F3d|A3D F3A BAGF E2A2|D3E FA3 d3e f3e|dcBA d3F E4 EE3:|
